X:503
T:Polska # 503
T: efter Melker Andersson
Q: 110
M:3/4
L:1/16
K: D
d4 D4E4| FGFE F2A2 A,2C2| D2DC D2DF E2G2| (FG)FE F2G2 A,3C|
D2DC D2DF E2G2| (FG)FE F2G2 A,3C| DFAd f4 e2d2 (cd)ec d8 :|
|: Adfd Adfd Adfd| Acec Acec Acec| BGBd BGBd BGBd|
FDFA FDFA D2Bc| d2d2 D4E4| FGFE F2G2 A,2C2| DEDC D2F2 E2G2|
FGFE F2G2 A,2C2|  DFAd f4 e2d2| (cd)ec d8:|

